src/assets/outline/Book1.svg

<svg width="24" height="24" viewBox="0 0 24 24"  xmlns="http://www.w3.org/2000/svg">
<path d="M12 22.08C11.7 22.08 11.4 22.01 11.15 21.87C9.28 20.85 5.99 19.77 3.93 19.5L3.64 19.46C2.33 19.3 1.25 18.07 1.25 16.74V4.66001C1.25 3.87001 1.56 3.15001 2.13 2.63001C2.7 2.11001 3.44 1.86001 4.22 1.93001C6.42 2.10001 9.74 3.20001 11.62 4.38001L11.86 4.52001C11.93 4.56001 12.08 4.56001 12.14 4.53001L12.3 4.43001C14.18 3.25001 17.5 2.13001 19.71 1.94001C19.73 1.94001 19.81 1.94001 19.83 1.94001C20.56 1.87001 21.31 2.13001 21.87 2.65001C22.44 3.17001 22.75 3.89001 22.75 4.68001V16.75C22.75 18.09 21.67 19.31 20.35 19.47L20.02 19.51C17.96 19.78 14.66 20.87 12.83 21.88C12.59 22.02 12.3 22.08 12 22.08ZM3.98 3.42001C3.66 3.42001 3.37 3.53001 3.14 3.74001C2.89 3.97001 2.75 4.30001 2.75 4.66001V16.74C2.75 17.33 3.26 17.9 3.83 17.98L4.13 18.02C6.38 18.32 9.83 19.45 11.83 20.54C11.92 20.58 12.05 20.59 12.1 20.57C14.1 19.46 17.57 18.32 19.83 18.02L20.17 17.98C20.74 17.91 21.25 17.33 21.25 16.74V4.67001C21.25 4.30001 21.11 3.98001 20.86 3.74001C20.6 3.51001 20.27 3.40001 19.9 3.42001C19.88 3.42001 19.8 3.42001 19.78 3.42001C17.87 3.59001 14.79 4.62001 13.11 5.67001L12.95 5.78001C12.4 6.12001 11.62 6.12001 11.09 5.79001L10.85 5.65001C9.14 4.60001 6.06 3.58001 4.1 3.42001C4.06 3.42001 4.02 3.42001 3.98 3.42001Z" />
<path d="M12 21.2402C11.59 21.2402 11.25 20.9002 11.25 20.4902V5.49023C11.25 5.08023 11.59 4.74023 12 4.74023C12.41 4.74023 12.75 5.08023 12.75 5.49023V20.4902C12.75 20.9102 12.41 21.2402 12 21.2402Z" />
<path d="M7.75 9.24023H5.5C5.09 9.24023 4.75 8.90023 4.75 8.49023C4.75 8.08023 5.09 7.74023 5.5 7.74023H7.75C8.16 7.74023 8.5 8.08023 8.5 8.49023C8.5 8.90023 8.16 9.24023 7.75 9.24023Z" />
<path d="M8.5 12.2402H5.5C5.09 12.2402 4.75 11.9002 4.75 11.4902C4.75 11.0802 5.09 10.7402 5.5 10.7402H8.5C8.91 10.7402 9.25 11.0802 9.25 11.4902C9.25 11.9002 8.91 12.2402 8.5 12.2402Z" />
</svg>

<?xml version="1.0" encoding="UTF-8"?>
<svg width="24" height="24" viewBox="0 0 24 24" xmlns="http://www.w3.org/2000/svg">
 <path d="m12 22.08c-0.3 0-0.6-0.07-0.85-0.21-1.87-1.02-5.16-2.1-7.22-2.37l-0.29-0.04c-1.31-0.16-2.39-1.39-2.39-2.72v-12.08c0-0.79 0.31-1.51 0.88-2.03s1.31-0.77 2.09-0.7c2.2 0.17 5.52 1.27 7.4 2.45l0.24 0.14c0.07 0.04 0.22 0.04 0.28 0.01l0.16-0.1c1.88-1.18 5.2-2.3 7.41-2.49h0.12c0.73-0.07 1.48 0.19 2.04 0.71 0.57 0.52 0.88 1.24 0.88 2.03v12.07c0 1.34-1.08 2.56-2.4 2.72l-0.33 0.04c-2.06 0.27-5.36 1.36-7.19 2.37-0.24 0.14-0.53 0.2-0.83 0.2zm-8.02-18.66c-0.32 0-0.61 0.11-0.84 0.32-0.25 0.23-0.39 0.56-0.39 0.92v12.08c0 0.59 0.51 1.16 1.08 1.24l0.3 0.04c2.25 0.3 5.7 1.43 7.7 2.52 0.09 0.04 0.22 0.05 0.27 0.03 2-1.11 5.47-2.25 7.73-2.55l0.34-0.04c0.57-0.07 1.08-0.65 1.08-1.24v-12.07c0-0.37-0.14-0.69-0.39-0.93-0.26-0.23-0.59-0.34-0.96-0.32h-0.12c-1.91 0.17-4.99 1.2-6.67 2.25l-0.16 0.11c-0.55 0.34-1.33 0.34-1.86 0.01l-0.24-0.14c-1.71-1.05-4.79-2.07-6.75-2.23h-0.12z"/>
 <path d="m12 21.24c-0.41 0-0.75-0.34-0.75-0.75v-15c0-0.41 0.34-0.75 0.75-0.75s0.75 0.34 0.75 0.75v15c0 0.42-0.34 0.75-0.75 0.75z"/>
 <path d="m7.75 9.2402h-2.25c-0.41 0-0.75-0.34-0.75-0.75s0.34-0.75 0.75-0.75h2.25c0.41 0 0.75 0.34 0.75 0.75s-0.34 0.75-0.75 0.75z"/>
 <path d="m8.5 12.24h-3c-0.41 0-0.75-0.34-0.75-0.75s0.34-0.75 0.75-0.75h3c0.41 0 0.75 0.34 0.75 0.75s-0.34 0.75-0.75 0.75z"/>
</svg>
